;FLAVOR:Marlin
;TIME:3373
;Filament used: 0.696675m
;Layer height: 0.1
;MINX:25.4
;MINY:30
;MINZ:0.3
;MAXX:74.6
;MAXY:70
;MAXZ:14
;Generated with Cura_SteamEngine 5.3.0
M140 S60
M105
M190 S60
M104 S200
M105
M109 S200
M82 ;absolute extrusion mode
G28 ;Home
G1 Z15.0 F6000 ;Move the platform down 15mm
;Prime the extruder
G92 E0
G1 F200 E3
G92 E0
G92 E0
G92 E0
G1 F1500 E-6.5
;LAYER_COUNT:138
;LAYER:0
M107
G0 F3600 X26.794 Y31.301 Z0.3
;TYPE:SKIRT
G1 F1500 E0
G1 F1800 X27.185 Y30.98 E0.00952
G1 X27.622 Y30.726 E0.01902
G1 X28.093 Y30.543 E0.02853
G1 X28.588 Y30.437 E0.03805
G1 X29.24 Y30.401 E0.05033
G1 X70.339 Y30.4 E0.82343
G1 X71.037 Y30.41 E0.83656
G1 X71.54 Y30.457 E0.84606
G1 X72.03 Y30.583 E0.85558
G1 X72.494 Y30.785 E0.8651
G1 X72.92 Y31.057 E0.87461
G1 X73.298 Y31.392 E0.88411
G1 X73.618 Y31.783 E0.89361
G1 X73.873 Y32.22 E0.90313
G1 X74.056 Y32.691 E0.91263
G1 X74.163 Y33.185 E0.92214
G1 X74.199 Y33.631 E0.93056
G1 X74.2 Y38.439 E1.021
G1 X74.19 Y39.14 E1.03419
G1 X74.103 Y39.882 E1.04824
G1 X73.919 Y40.487 E1.06014
G1 X73.67 Y40.988 E1.07066
G1 X73.301 Y41.59 E1.08394
G1 X72.545 Y42.792 E1.11065
G1 X71.164 Y45.13 E1.16173
G1 X69.836 Y47.531 E1.21334
G1 X68.579 Y49.966 E1.26489
G1 X67.382 Y52.454 E1.31683
G1 X66.279 Y54.922 E1.36767
G1 X65.219 Y57.49 E1.41993
G1 X64.25 Y60.035 E1.47116
G1 X63.351 Y62.619 E1.52262
G1 X62.537 Y65.184 E1.57324
G1 X62.221 Y66.276 E1.59463
G1 X61.945 Y67.177 E1.61235
G1 X61.673 Y67.77 E1.62463
G1 X61.391 Y68.19 E1.63414
G1 X60.832 Y68.755 E1.64909
G1 X60.311 Y69.113 E1.66098
G1 X59.855 Y69.33 E1.67048
G1 X59.225 Y69.507 E1.68279
G1 X58.561 Y69.589 E1.69538
G1 X57.933 Y69.6 E1.70719
G1 X42.161 Y69.6 E2.00387
G1 X41.462 Y69.59 E2.01702
G1 X40.724 Y69.505 E2.031
G1 X40.12 Y69.321 E2.04287
G1 X39.666 Y69.1 E2.05237
G1 X39.123 Y68.708 E2.06497
G1 X38.754 Y68.363 E2.07447
G1 X38.444 Y67.964 E2.08398
G1 X38.115 Y67.342 E2.09721
G1 X37.937 Y66.878 E2.10656
G1 X37.501 Y65.402 E2.13551
G1 X36.687 Y62.808 E2.18665
G1 X35.786 Y60.2 E2.23855
G1 X34.824 Y57.649 E2.28984
G1 X33.79 Y55.122 E2.3412
G1 X32.667 Y52.592 E2.39327
G1 X31.516 Y50.182 E2.4435
G1 X30.239 Y47.691 E2.49616
G1 X28.941 Y45.327 E2.54689
G1 X27.542 Y42.94 E2.59893
G1 X26.744 Y41.668 E2.62718
G1 X26.321 Y40.969 E2.64255
G1 X26.094 Y40.517 E2.65206
G1 X25.896 Y39.84 E2.66533
G1 X25.813 Y39.172 E2.67799
G1 X25.8 Y38.477 E2.69107
G1 X25.8 Y34.226 E2.77103
G1 X25.81 Y33.561 E2.78354
G1 X25.858 Y33.058 E2.79305
G1 X25.984 Y32.568 E2.80257
G1 X26.186 Y32.104 E2.81208
G1 X26.458 Y31.678 E2.82159
G1 X26.794 Y31.301 E2.83109
G0 F3600 X26.495 Y31.035
G1 F1800 X26.984 Y30.634 E2.84299
G1 X27.477 Y30.353 E2.85366
G1 X27.948 Y30.17 E2.86317
G1 X28.504 Y30.046 E2.87388
G1 X29.24 Y30.001 E2.88775
G1 X70.345 Y30 E3.66096
G1 X71.043 Y30.01 E3.67409
G1 X71.64 Y30.07 E3.68538
G1 X72.19 Y30.216 E3.69608
G1 X72.654 Y30.418 E3.7056
G1 X73.135 Y30.72 E3.71628
G1 X73.608 Y31.139 E3.72817
G1 X73.928 Y31.53 E3.73768
G1 X74.246 Y32.075 E3.74954
G1 X74.447 Y32.606 E3.76022
G1 X74.562 Y33.153 E3.77074
G1 X74.598 Y33.599 E3.77916
G1 X74.6 Y38.445 E3.87031
G1 X74.59 Y39.146 E3.8835
G1 X74.496 Y39.966 E3.89902
G1 X74.302 Y40.603 E3.91155
G1 X74.011 Y41.197 E3.92399
G1 X73.64 Y41.803 E3.93736
G1 X72.883 Y43.005 E3.96408
G1 X71.514 Y45.324 E4.01473
G1 X70.185 Y47.725 E4.06636
G1 X68.934 Y50.149 E4.11767
G1 X67.747 Y52.617 E4.16918
G1 X66.649 Y55.075 E4.21982
G1 X65.589 Y57.643 E4.27208
G1 X64.624 Y60.177 E4.32309
G1 X63.729 Y62.75 E4.37433
G1 X62.918 Y65.305 E4.42475
G1 X62.603 Y66.393 E4.44606
G1 X62.309 Y67.344 E4.46478
G1 X62.037 Y67.937 E4.47706
G1 X61.704 Y68.441 E4.48842
G1 X61.086 Y69.067 E4.50497
G1 X60.538 Y69.443 E4.51747
G1 X59.996 Y69.706 E4.5288
G1 X59.274 Y69.904 E4.54288
G1 X58.568 Y69.989 E4.55626
G1 X57.94 Y70 E4.56807
G1 X42.155 Y70 E4.865
G1 X41.456 Y69.99 E4.87815
G1 X40.638 Y69.897 E4.89363
G1 X40.003 Y69.704 E4.90612
G1 X39.463 Y69.447 E4.91737
G1 X38.85 Y69 E4.93164
G1 X38.438 Y68.608 E4.94234
G1 X38.09 Y68.151 E4.95314
G1 X37.761 Y67.529 E4.96638
G1 X37.553 Y66.991 E4.97723
G1 X37.117 Y65.515 E5.00618
G1 X36.305 Y62.928 E5.05718
G1 X35.408 Y60.331 E5.10886
G1 X34.45 Y57.79 E5.15995
G1 X33.424 Y55.284 E5.21088
G1 X32.301 Y52.754 E5.26295
G1 X31.155 Y50.354 E5.31298
G1 X29.888 Y47.884 E5.3652
G1 X28.591 Y45.52 E5.41592
G1 X27.203 Y43.153 E5.46753
G1 X26.402 Y41.875 E5.49591
G1 X25.964 Y41.149 E5.51186
G1 X25.719 Y40.662 E5.52211
G1 X25.499 Y39.889 E5.53723
G1 X25.413 Y39.179 E5.55068
G1 X25.4 Y38.484 E5.56376
G1 X25.4 Y34.22 E5.64396
G1 X25.41 Y33.555 E5.65648
G1 X25.471 Y32.958 E5.66776
G1 X25.617 Y32.408 E5.67847
G1 X25.819 Y31.944 E5.68799
G1 X26.159 Y31.412 E5.69986
G1 X26.495 Y31.035 E5.70936
G1 F1500 E-0.79064
;MESH:sk8_rod_holder_v2.amf
G0 F3600 X29.414 Y32.935
G0 X29.414 Y34.014
G0 X58.1 Y39.888
G0 X58.405 Y39.888
;TYPE:WALL-INNER
G1 F1500 E5.70936
G1 F1800 X58.635 Y39.418 E5.71921
G1 X59.019 Y39.11 E5.72847
G1 X59.433 Y39 E5.73652
G1 X70.4 Y39 E5.94282
G1 X70.4 Y34.2 E6.03311
G1 X29.6 Y34.2 E6.80058
G1 X29.6 Y39 E6.89087
G1 X40.683 Y39 E7.09935
G1 X41.192 Y39.243 E7.10996
G1 X41.496 Y39.631 E7.11923
G1 X41.597 Y40.037 E7.1271
G1 X41.6 Y65.8 E7.61172
G1 X48.9 Y65.8 E7.74903
G1 X48.9 Y58.446 E7.88737
G1 X48.254 Y58.291 E7.89986
G1 X47.173 Y57.729 E7.92278
G1 X46.269 Y56.937 E7.94539
G1 X45.579 Y55.947 E7.96809
G1 X45.146 Y54.821 E7.99078
G1 X44.995 Y53.616 E8.01362
G1 X45.138 Y52.415 E8.03637
G1 X45.562 Y51.286 E8.05906
G1 X46.249 Y50.286 E8.08188
G1 X47.148 Y49.486 E8.10452
G1 X48.222 Y48.922 E8.12734
G1 X49.388 Y48.633 E8.14993
G1 X50.612 Y48.633 E8.17296
G1 X51.776 Y48.921 E8.19551
G1 X52.85 Y49.485 E8.21833
G1 X53.751 Y50.286 E8.24101
G1 X54.438 Y51.286 E8.26383
G1 X54.862 Y52.415 E8.28652
G1 X55.005 Y53.62 E8.30934
G1 X54.855 Y54.817 E8.33204
G1 X54.421 Y55.947 E8.35481
G1 X53.731 Y56.937 E8.37751
G1 X52.827 Y57.729 E8.40011
G1 X51.746 Y58.291 E8.42303
G1 X51.1 Y58.446 E8.43553
G1 X51.1 Y65.8 E8.57386
G1 X58.4 Y65.8 E8.71118
G1 X58.405 Y39.888 E9.1986
G0 F3600 X58.1 Y39.888
G0 X41.491 Y39.117
G0 X40.94 Y39.553
;TYPE:WALL-OUTER
G1 F1800 X41.146 Y39.837 E9.2052
G1 X41.199 Y40.079 E9.20986
G1 X41.201 Y65.936 E9.69624
G1 X41.272 Y66.085 E9.69935
G1 X41.371 Y66.164 E9.70173
G1 X41.525 Y66.2 E9.7047
G1 X49.3 Y66.2 E9.85095
G1 X49.3 Y58.131 E10.00274
G1 X48.397 Y57.914 E10.02021
G1 X47.414 Y57.405 E10.04103
G1 X46.569 Y56.667 E10.06213
G1 X45.937 Y55.76 E10.08293
G1 X45.534 Y54.705 E10.10417
G1 X45.398 Y53.617 E10.1248
G1 X45.529 Y52.51 E10.14577
G1 X45.919 Y51.472 E10.16662
G1 X46.567 Y50.539 E10.18799
G1 X47.378 Y49.817 E10.20842
G1 X48.366 Y49.298 E10.22941
G1 X49.451 Y49.032 E10.25042
G1 X50.549 Y49.032 E10.27108
G1 X51.632 Y49.297 E10.29205
G1 X52.601 Y49.806 E10.31264
G1 X53.433 Y50.539 E10.3335
G1 X54.081 Y51.472 E10.35486
G1 X54.471 Y52.51 E10.37572
G1 X54.602 Y53.617 E10.39669
G1 X54.466 Y54.705 E10.41732
G1 X54.063 Y55.76 E10.43856
G1 X53.431 Y56.667 E10.45935
G1 X52.586 Y57.405 E10.48046
G1 X51.603 Y57.914 E10.50128
G1 X50.7 Y58.131 E10.51875
G1 X50.7 Y66.2 E10.67053
G1 X58.475 Y66.199 E10.81678
G1 X58.629 Y66.164 E10.81976
G1 X58.72 Y66.091 E10.82195
G1 X58.8 Y65.868 E10.82641
G1 X58.801 Y39.973 E11.31351
G1 X58.951 Y39.664 E11.31997
G1 X59.194 Y39.47 E11.32582
G1 X59.466 Y39.402 E11.33109
G1 X70.536 Y39.399 E11.53932
G1 X70.685 Y39.328 E11.54243
G1 X70.764 Y39.229 E11.54481
G1 X70.8 Y39.075 E11.54778
G1 X70.8 Y33.8 E11.64701
G1 X29.2 Y33.8 E12.42953
G1 X29.201 Y39.075 E12.52876
G1 X29.236 Y39.229 E12.53173
G1 X29.309 Y39.32 E12.53392
G1 X29.532 Y39.4 E12.53838
G1 X40.584 Y39.4 E12.74627
G1 X40.94 Y39.553 E12.75356
G0 F3600 X41.057 Y39.715
G0 X41.84 Y39.472
;TYPE:SKIN
G1 F1800 X41.423 Y38.937 E12.76632
G1 X40.758 Y38.62 E12.78018
G1 X29.98 Y38.62 E12.98292
G1 X29.98 Y34.58 E13.05891
G1 X70.02 Y34.58 E13.81209
G1 X70.02 Y38.62 E13.88808
G1 X59.378 Y38.622 E14.08826
G1 X58.848 Y38.765 E14.09859
G1 X58.336 Y39.184 E14.11103
G1 X58.069 Y39.713 E14.12218
G1 X58.02 Y39.942 E14.12659
G1 X58.02 Y65.42 E14.60584
G1 X51.48 Y65.42 E14.72886
G1 X51.481 Y58.741 E14.8545
G1 X51.986 Y58.594 E14.86439
G1 X53.037 Y58.047 E14.88668
G1 X54.021 Y57.189 E14.91124
G1 X54.756 Y56.132 E14.93545
G1 X55.228 Y54.896 E14.96034
G1 X55.388 Y53.617 E14.98459
G1 X55.236 Y52.328 E15.009
G1 X54.776 Y51.104 E15.0336
G1 X54.043 Y50.037 E15.05795
G1 X53.068 Y49.171 E15.08248
G1 X51.948 Y48.583 E15.10627
G1 X50.659 Y48.254 E15.1313
G1 X49.341 Y48.254 E15.15609
G1 X48.05 Y48.584 E15.18116
G1 X46.929 Y49.172 E15.20497
G1 X45.957 Y50.037 E15.22944
G1 X45.224 Y51.104 E15.25379
G1 X44.764 Y52.328 E15.27839
G1 X44.611 Y53.621 E15.30288
G1 X44.771 Y54.896 E15.32705
G1 X45.244 Y56.132 E15.35195
G1 X45.979 Y57.189 E15.37616
G1 X46.963 Y58.047 E15.40072
G1 X48.014 Y58.594 E15.42301
G1 X48.52 Y58.741 E15.43292
G1 X48.52 Y65.42 E15.55856
G1 X41.98 Y65.42 E15.68158
G1 X41.975 Y39.989 E16.15995
G1 X41.84 Y39.472 E16.17
G0 F3600 X42.591 Y65.219
G1 F1800 X42.179 Y64.807 E16.18096
G0 F3600 X42.179 Y64.241
G1 F1800 X43.157 Y65.219 E16.20698
G0 F3600 X43.723 Y65.219
G1 F1800 X42.179 Y63.675 E16.24805
G0 F3600 X42.179 Y63.109
G1 F1800 X44.288 Y65.219 E16.30417
G0 F3600 X44.854 Y65.219
G1 F1800 X42.178 Y62.543 E16.37536
G0 F3600 X42.178 Y61.977
G1 F1800 X45.42 Y65.219 E16.4616
G0 F3600 X45.985 Y65.219
G1 F1800 X42.178 Y61.412 E16.56287
G0 F3600 X42.178 Y60.846
G1 F1800 X46.551 Y65.219 E16.67921
G0 F3600 X47.117 Y65.219
G1 F1800 X42.178 Y60.28 E16.81059
G0 F3600 X42.178 Y59.714
G1 F1800 X47.683 Y65.219 E16.95704
G0 F3600 X48.248 Y65.219
G1 F1800 X42.178 Y59.148 E17.11853
G0 F3600 X42.178 Y58.583
G1 F1800 X48.32 Y64.725 E17.28192
G0 F3600 X48.32 Y64.159
G1 F1800 X42.178 Y58.017 E17.44531
G0 F3600 X42.177 Y57.451
G1 F1800 X48.32 Y63.593 E17.60871
G0 F3600 X48.32 Y63.027
G1 F1800 X42.177 Y56.885 E17.77211
G0 F3600 X42.177 Y56.319
G1 F1800 X48.32 Y62.462 E17.93553
G0 F3600 X48.32 Y61.896
G1 F1800 X42.177 Y55.753 E18.09895
G0 F3600 X42.177 Y55.188
G1 F1800 X48.32 Y61.33 E18.26235
G0 F3600 X48.32 Y60.765
G1 F1800 X42.176 Y54.621 E18.4258
G0 F3600 X42.176 Y54.056
G1 F1800 X48.32 Y60.199 E18.58923
G0 F3600 X48.32 Y59.633
G1 F1800 X46.95 Y58.264 E18.62566
G1 X46.88 Y58.194
G0 F3600 X48.066 Y58.814
G1 F1800 X48.32 Y59.068 E18.63241
G0 F3600 X46.092 Y57.098
G0 X45.367 Y56.059
G0 X44.912 Y54.876
G0 X44.754 Y53.619
G0 X44.904 Y52.36
G0 X45.349 Y51.174
G0 X46.068 Y50.13
G0 X47.014 Y49.288
G0 X48.136 Y48.697
G0 X49.367 Y48.393
G0 X50.633 Y48.393
G0 X51.864 Y48.697
G0 X52.986 Y49.288
G0 X53.932 Y50.13
G0 X54.651 Y51.174
G0 X55.096 Y52.36
G0 X55.246 Y53.619
G0 X55.088 Y54.876
G0 X54.633 Y56.059
G0 X53.981 Y56.994
G0 X51.68 Y59.034
G1 F1800 X57.82 Y65.174 E18.79575
G0 F3600 X57.299 Y65.219
G1 F1800 X51.68 Y59.599 E18.94524
G0 F3600 X51.68 Y60.165
G1 F1800 X56.734 Y65.219 E19.07969
G0 F3600 X56.168 Y65.219
G1 F1800 X51.68 Y60.731 E19.19908
G0 F3600 X51.68 Y61.296
G1 F1800 X55.602 Y65.219 E19.30343
G0 F3600 X55.036 Y65.219
G1 F1800 X51.68 Y61.862 E19.39272
G0 F3600 X51.679 Y62.427
G1 F1800 X54.471 Y65.219 E19.46699
G0 F3600 X53.905 Y65.219
G1 F1800 X51.679 Y62.993 E19.52621
G0 F3600 X51.679 Y63.559
G1 F1800 X53.339 Y65.219 E19.57037
G0 F3600 X52.774 Y65.219
G1 F1800 X51.679 Y64.124 E19.5995
G0 F3600 X51.679 Y64.69
G1 F1800 X52.208 Y65.219 E19.61357
G0 F3600 X57.82 Y64.608
G1 F1800 X52.01 Y58.798 E19.76813
G0 F3600 X52.387 Y58.609
G1 F1800 X57.82 Y64.042 E19.91266
G0 F3600 X57.82 Y63.476
G1 F1800 X52.759 Y58.416 E20.04728
G0 F3600 X53.131 Y58.222
G1 F1800 X57.82 Y62.911 E20.17201
G0 F3600 X57.82 Y62.345
G1 F1800 X53.438 Y57.964 E20.28857
G0 F3600 X53.74 Y57.7
G1 F1800 X57.82 Y61.779 E20.39709
G0 F3600 X57.82 Y61.214
G1 F1800 X54.042 Y57.436 E20.4976
G0 F3600 X54.302 Y57.131
G1 F1800 X57.82 Y60.648 E20.59117
G0 F3600 X57.82 Y60.082
G1 F1800 X54.534 Y56.797 E20.67857
G0 F3600 X54.766 Y56.463
G1 F1800 X57.82 Y59.517 E20.75981
G0 F3600 X57.82 Y58.951
G1 F1800 X54.978 Y56.11 E20.8354
G0 F3600 X55.135 Y55.7
G1 F1800 X57.82 Y58.385 E20.90683
G0 F3600 X57.82 Y57.82
G1 F1800 X55.292 Y55.292 E20.97408
G0 F3600 X55.431 Y54.865
G1 F1800 X57.82 Y57.254 E21.03763
G0 F3600 X57.82 Y56.688
G1 F1800 X55.494 Y54.363 E21.0995
G0 F3600 X55.556 Y53.859
G1 F1800 X57.82 Y56.123 E21.15972
G0 F3600 X57.82 Y55.557
G1 F1800 X55.548 Y53.286 E21.22015
G0 F3600 X55.473 Y52.645
G1 F1800 X57.82 Y54.991 E21.28257
G0 F3600 X57.82 Y54.426
G1 F1800 X55.283 Y51.888 E21.35008
G1 X55.213 Y51.818
G0 F3600 X54.915 Y50.955
G1 F1800 X57.82 Y53.86 E21.42736
G0 F3600 X57.82 Y53.294
G1 F1800 X39.305 Y34.779 E21.91989
G0 F3600 X39.87 Y34.779
G1 F1800 X57.82 Y52.728 E22.39739
G0 F3600 X57.82 Y52.163
G1 F1800 X40.436 Y34.779 E22.85984
G0 F3600 X41.002 Y34.779
G1 F1800 X57.82 Y51.597 E23.30724
G0 F3600 X57.82 Y51.031
G1 F1800 X41.567 Y34.779 E23.73959
G0 F3600 X42.133 Y34.779
G1 F1800 X57.82 Y50.466 E24.1569
G0 F3600 X57.82 Y49.9
G1 F1800 X42.699 Y34.779 E24.55915
G0 F3600 X43.265 Y34.779
G1 F1800 X57.82 Y49.334 E24.94634
G0 F3600 X57.82 Y48.769
G1 F1800 X43.83 Y34.779 E25.3185
G0 F3600 X44.396 Y34.779
G1 F1800 X57.82 Y48.203 E25.67561
G0 F3600 X57.82 Y47.637
G1 F1800 X44.962 Y34.779 E26.01766
G0 F3600 X45.527 Y34.779
G1 F1800 X57.82 Y47.072 E26.34468
G0 F3600 X57.82 Y46.506
G1 F1800 X46.093 Y34.779 E26.65665
G0 F3600 X46.659 Y34.779
G1 F1800 X57.82 Y45.94 E26.95355
G0 F3600 X57.82 Y45.375
G1 F1800 X47.224 Y34.779 E27.23543
G0 F3600 X47.79 Y34.779
G1 F1800 X57.82 Y44.809 E27.50225
G0 F3600 X57.82 Y44.243
G1 F1800 X48.356 Y34.779 E27.75401
G0 F3600 X48.921 Y34.779
G1 F1800 X57.82 Y43.677 E27.99073
G0 F3600 X57.82 Y43.112
G1 F1800 X49.487 Y34.779 E28.21241
G0 F3600 X50.053 Y34.779
G1 F1800 X57.82 Y42.546 E28.41902
G0 F3600 X57.82 Y41.98
G1 F1800 X50.618 Y34.779 E28.6106
G0 F3600 X51.184 Y34.779
G1 F1800 X57.82 Y41.415 E28.78713
G0 F3600 X57.82 Y40.849
G1 F1800 X51.75 Y34.779 E28.94861
G0 F3600 X52.316 Y34.779
G1 F1800 X57.82 Y40.283 E29.09502
G0 F3600 X57.851 Y39.75
G1 F1800 X52.881 Y34.779 E29.22725
G0 F3600 X53.447 Y34.779
G1 F1800 X58.023 Y39.355 E29.34898
G0 F3600 X58.234 Y39.001
G1 F1800 X54.013 Y34.779 E29.46128
G0 F3600 X54.578 Y34.779
G1 F1800 X58.547 Y38.748 E29.56687
G0 F3600 X58.906 Y38.541
G1 F1800 X55.144 Y34.779 E29.66694
G0 F3600 X55.71 Y34.779
G1 F1800 X59.354 Y38.424 E29.7639
G0 F3600 X59.92 Y38.424
G1 F1800 X56.275 Y34.779 E29.86086
G0 F3600 X56.841 Y34.779
G1 F1800 X60.485 Y38.424 E29.95781
G0 F3600 X61.05 Y38.423
G1 F1800 X57.407 Y34.779 E30.05474
G0 F3600 X57.972 Y34.779
G1 F1800 X61.616 Y38.423 E30.15168
G0 F3600 X62.182 Y38.423
G1 F1800 X58.538 Y34.779 E30.24861
G0 F3600 X59.104 Y34.779
G1 F1800 X62.747 Y38.422 E30.34552
G0 F3600 X63.312 Y38.422
G1 F1800 X59.669 Y34.779 E30.44244
G0 F3600 X60.235 Y34.779
G1 F1800 X63.877 Y38.422 E30.53933
G0 F3600 X64.443 Y38.422
G1 F1800 X60.801 Y34.779 E30.63623
G0 F3600 X61.366 Y34.779
G1 F1800 X65.009 Y38.422 E30.73314
G0 F3600 X65.574 Y38.421
G1 F1800 X61.932 Y34.779 E30.83003
G0 F3600 X62.498 Y34.779
G1 F1800 X66.139 Y38.421 E30.9269
G0 F3600 X66.705 Y38.421
G1 F1800 X63.064 Y34.779 E31.02377
G0 F3600 X63.629 Y34.779
G1 F1800 X67.27 Y38.42 E31.12063
G0 F3600 X67.836 Y38.42
G1 F1800 X64.195 Y34.779 E31.21749
G0 F3600 X64.761 Y34.779
G1 F1800 X68.401 Y38.419 E31.31432
G0 F3600 X68.966 Y38.419
G1 F1800 X65.326 Y34.779 E31.41115
G0 F3600 X65.892 Y34.779
G1 F1800 X69.532 Y38.419 E31.50799
G0 F3600 X69.819 Y38.141
G1 F1800 X66.458 Y34.779 E31.59741
G0 F3600 X67.023 Y34.779
G1 F1800 X69.819 Y37.575 E31.67179
G0 F3600 X69.819 Y37.009
G1 F1800 X67.589 Y34.779 E31.73111
G0 F3600 X68.155 Y34.779
G1 F1800 X69.819 Y36.444 E31.77539
G0 F3600 X69.819 Y35.878
G1 F1800 X68.72 Y34.779 E31.80463
G0 F3600 X69.286 Y34.779
G1 F1800 X69.819 Y35.312 E31.8188
G0 F3600 X58.91 Y38.875
G0 X52.725 Y48.765
G1 F1800 X38.739 Y34.779 E32.19086
G0 F3600 X38.173 Y34.779
G1 F1800 X51.703 Y48.309 E32.55079
G0 F3600 X50.946 Y48.117
G1 F1800 X37.608 Y34.779 E32.90561
G0 F3600 X37.042 Y34.779
G1 F1800 X40.682 Y38.419 E33.00244
G0 F3600 X40.116 Y38.419
G1 F1800 X36.476 Y34.779 E33.09927
G0 F3600 X35.911 Y34.779
G1 F1800 X39.551 Y38.419 E33.1961
G0 F3600 X38.985 Y38.419
G1 F1800 X35.345 Y34.779 E33.29294
